**kern	**kern	**dynam
*part1	*part1	*part1
*staff2	*staff1	*
*I"Piano	*	*
*clefF4	*clefG2	*
*k[f#c#g#d#a#e#]	*k[f#c#g#d#a#e#]	*
=1	=1	=1
8F#L 8A#	8c#L 8f# 8a# 8cc#	.
8FF# 8C#	8A# 8f#	.
8FF#J 8C#	8A#J 8f#	.
=	=	=
8FF#L 8C#	8A#L 8f#	.
8FF# 8C#	8A# 8f#	.
8FF#J 8C#	8A#J 8f#	.
=	=	=
8FF#L	8e#L 8g# 8b	.
8C#	8e# 8g# 8b	.
8G#J	8e#J 8a# 8cc#	.
=	=	=
*	*^	*
8FF#L	8.bL 8.dd#	4.e#	.
8C#	.	.	.
.	16a#K 16cc#	.	.
8G#J	8g#J 8b	.	.
=	=	=	=
8FF#L	4.g# 4.b	8e#L	.
8C#	.	8c#	.
8G#J	.	8c#J	.
=	=	=	=
8FF#L	4.a#	8f#L	.
8C#	.	8A# 8c#	.
8F#J	.	8A#J 8c#	.
=	=	=	=
4.GGG# 4.GG#	4.b	8BL	.
.	.	8d#	.
.	.	8g#J	.
*	*v	*v	*
=	=	=
*^	*	*
!	!	!	!LO:DY:a
8E#L	4.CC# 4.C#	4.e#	>
8G#	.	.	.
8BJ	.	.	.
=	=	=	=
8E#L	[4.FF# [4.C#	4.e#	.
8G#	.	.	.
8BJ	.	.	.
=	=	=	=
4.F#; 4.A#	4.FF#] 4.C#]	4.f#;	]
*v	*v	*	*
==	==	==
*-	*-	*-
!!!system-decoration: {(s1,s2)}
